communes/5731.svg

<?xml version="1.0" encoding="UTF-8"?>
<svg version="1.0" viewBox="0 0 603 763" xmlns="http://www.w3.org/2000/svg" xmlns:cc="http://creativecommons.org/ns#" xmlns:dc="http://purl.org/dc/elements/1.1/" xmlns:rdf="http://www.w3.org/1999/02/22-rdf-syntax-ns#" xmlns:xlink="http://www.w3.org/1999/xlink">
<metadata>
<rdf:RDF>
<cc:Work rdf:about="">
<dc:format>image/svg+xml</dc:format>
<dc:type rdf:resource="http://purl.org/dc/dcmitype/StillImage"/>
<dc:date>07-AUG-2006</dc:date>
<dc:creator>
<cc:Agent>
<dc:title>Jérôme BLUM (wagner51)</dc:title>
</cc:Agent>
</dc:creator>
<cc:license rdf:resource="http://creativecommons.org/licenses/GPL/2.0/"/>
<dc:coverage/>
<dc:description>Gabarit pour le Projet:Blasons de WIkipédia</dc:description>
<dc:subject>
<rdf:Bag>
<rdf:li>blason suisse modèle gabarit projet blasons</rdf:li>
</rdf:Bag>
</dc:subject>
<dc:language>fr</dc:language>
<dc:title>Gabrit d'un blason suisse</dc:title>
</cc:Work>
<cc:License rdf:about="http://creativecommons.org/licenses/GPL/2.0/">
<cc:permits rdf:resource="http://web.resource.org/cc/Reproduction"/>
<cc:permits rdf:resource="http://web.resource.org/cc/Distribution"/>
<cc:requires rdf:resource="http://web.resource.org/cc/Notice"/>
<cc:permits rdf:resource="http://web.resource.org/cc/DerivativeWorks"/>
<cc:requires rdf:resource="http://web.resource.org/cc/ShareAlike"/>
<cc:requires rdf:resource="http://web.resource.org/cc/SourceCode"/>
</cc:License>
</rdf:RDF>
</metadata>
<defs>
<radialGradient id="a" cx="858.04" cy="579.93" r="300" gradientTransform="matrix(1.215 1.5316e-24 1.4647e-23 1.2667 -839.19 -490.49)" gradientUnits="userSpaceOnUse">
<stop stop-color="#fff" stop-opacity=".31373" offset="0"/>
<stop stop-color="#fff" stop-opacity=".25098" offset=".19"/>
<stop stop-color="#6b6b6b" stop-opacity=".12549" offset=".6"/>
<stop stop-opacity=".12549" offset="1"/>
</radialGradient>
</defs>
<desc>Coat of Arms of Canton of Freiburg (Fribourg)</desc>
<g>
<path d="m1.5 1.5v458.87c0 166.31 134.31 301.13 300 301.13 165.69 0 300-134.82 300-301.13v-458.87h-600z" fill="#e20909"/>
<g fill="#fff" stroke="#000" stroke-width="3">
<path d="m86.479 414.81v130.7h130.69v-109.5l-21.195-21.194h-109.5zm30.24 30.239c10.628-10.627 24.92-13.567 31.921-6.566 1.528 1.528 2.581 3.4 3.186 5.507 0.605-2.106 1.658-3.979 3.186-5.507 7-7.001 21.292-4.061 31.92 6.567 10.629 10.629 13.568 24.921 6.567 31.922-1.527 1.527-3.4 2.58-5.507 3.185 2.107 0.605 3.981 1.658 5.507 3.185 7.002 7.003 4.062 21.295-6.566 31.922-10.629 10.629-24.919 13.568-31.921 6.567-1.528-1.527-2.582-3.401-3.186-5.51-0.605 2.108-1.658 3.983-3.187 5.511-7.001 7.001-21.292 4.062-31.921-6.567-10.627-10.628-13.567-24.92-6.566-31.922 1.528-1.527 3.401-2.58 5.509-3.187-2.108-0.604-3.981-1.657-5.509-3.185-7.001-7.001-4.061-21.293 6.567-31.922z"/>
<path d="m198.33 409.14h-117.52v142.04h142.04v-117.52l-24.518-24.519zm13.17 29.22v101.48h-119.35v-119.35h101.48c2.583 2.582 15.288 15.287 17.871 17.87z"/>
<path d="m465.5 166.49-54.063 54.064 17.527 17.527-13.986 13.986 18.369 18.37 13.986-13.986 13.985 13.986-13.985 13.986 18.368 18.37 34.026-34.025-12.149-12.149 13.984-13.986 12.149 12.149 34.026-34.025-18.369-18.37-13.986 13.986-13.986-13.985 13.986-13.987-18.369-18.37-13.985 13.986-17.528-17.527zm-7.773 37.316 9.813 9.812 9.811-9.812 9.812 9.812-9.812 9.811 9.812 9.812-9.812 9.812-9.811-9.812-9.813 9.812-9.812-9.812 9.812-9.812-9.812-9.811 9.812-9.812z"/>
<path d="m479.58 134.22c5.022-5.023 10.591-2.448 15.614 2.574 5.022 5.023 7.598 10.593 2.575 15.615l-282.02 282.02-18.189-18.19 282.02-282.02z"/>
<ellipse transform="matrix(-.7071 -.7071 .7071 -.7071 -244.92 995.28)" cx="83.69" cy="548.38" rx="20.9" ry="16.124"/>
<ellipse transform="matrix(.7071 -.7071 .7071 .7071 -266.88 179.81)" cx="83.69" cy="412.03" rx="20.901" ry="16.123"/>
<ellipse transform="matrix(.7071 -.7071 .7071 .7071 -323.35 316.16)" cx="220.04" cy="548.38" rx="20.9" ry="16.123"/>
<path d="m186.53 405.2c4.248-4.248 11.132-4.248 15.38 0l24.877 24.876c4.246 4.248 4.247 11.133 0 15.38-4.248 4.248-11.133 4.248-15.38 0l-24.876-24.875c-4.249-4.248-4.249-11.134-1e-3 -15.381z"/>
<path d="m407.02 414.81-21.195 21.194v109.5h130.7v-130.7h-109.5zm85.826 62.161c-1.527 1.527-3.401 2.581-5.509 3.185 2.107 0.606 3.981 1.659 5.509 3.187 7.001 7.002 4.063 21.294-6.566 31.922-10.629 10.629-24.92 13.568-31.922 6.567-1.526-1.527-2.581-3.402-3.186-5.511-0.604 2.108-1.658 3.982-3.186 5.51-7.002 7.001-21.292 4.062-31.922-6.567-10.628-10.627-13.568-24.919-6.566-31.922 1.527-1.526 3.4-2.579 5.508-3.185-2.107-0.604-3.979-1.657-5.508-3.185-7.001-7.001-4.062-21.293 6.567-31.922 10.629-10.628 24.921-13.568 31.921-6.567 1.527 1.528 2.581 3.4 3.186 5.507 0.604-2.106 1.658-3.979 3.185-5.507 7.001-7.001 21.294-4.061 31.922 6.566 10.629 10.629 13.568 24.921 6.567 31.922z"/>
<path d="m380.15 433.66v117.52h142.04v-142.04h-117.52l-24.52 24.519zm29.22-13.17h101.48v119.35h-119.35v-101.48c2.583-2.582 15.288-15.287 17.871-17.87z"/>
<path d="m119.97 184.01-13.986-13.986-18.37 18.37 13.987 13.987-13.986 13.985-13.986-13.986-18.37 18.37 34.025 34.025 12.15-12.149 13.985 13.986-12.149 12.149 34.026 34.025 18.369-18.37-13.986-13.986 13.986-13.986 13.986 13.986 18.37-18.37-13.986-13.986 17.527-17.527-54.064-54.064-17.528 17.527zm35.112 29.601-9.812 9.811 9.812 9.812-9.811 9.812-9.812-9.812-9.812 9.812-9.812-9.812 9.812-9.812-9.812-9.811 9.812-9.812 9.812 9.812 9.812-9.812 9.811 9.812z"/>
<path d="m123.42 134.22c-5.023-5.023-10.591-2.448-15.615 2.574-5.022 5.023-7.598 10.593-2.575 15.615l282.02 282.02 18.19-18.19-282.02-282.02z"/>
<ellipse transform="matrix(.7071 -.7071 .7071 .7071 -235.68 527.82)" cx="519.38" cy="548.38" rx="20.9" ry="16.124"/>
<ellipse transform="matrix(-.7071 -.7071 .7071 -.7071 595.25 1070.6)" cx="519.38" cy="412.03" rx="20.901" ry="16.123"/>
<ellipse transform="matrix(-.7071 -.7071 .7071 -.7071 266.09 1206.9)" cx="383.04" cy="548.38" rx="20.9" ry="16.124"/>
<path d="m416.47 405.2c-4.246-4.248-11.132-4.248-15.379 0l-24.877 24.876c-4.246 4.248-4.247 11.133 0 15.38 4.248 4.248 11.133 4.248 15.38 0l24.876-24.875c4.249-4.248 4.249-11.134 0-15.381z"/>
</g>
<g fill="#fff" stroke="#000" stroke-width="3">
<rect x="290.41" y="247.55" width="22.187" height="417.09"/>
<path d="m351.18 40.4h-99.358l-16.698 165.62s39.478 0.134 65.728 7.884h1.299c26.25-7.75 65.728-7.884 65.728-7.884h1e-3l-16.7-165.62z"/>
<path d="m312.59 234.71-6.938-106.19c0-8.208-1.86-14.863-4.156-14.863s-4.157 6.655-4.157 14.863l-6.938 106.19c-4.5 2.437-7.424 6.306-7.424 10.678 0 4.377 2.918 8.263 7.428 10.699 0 0 6.931-2.028 11.091-2.028 4.162 0 11.096 2.026 11.096 2.026 4.507-2.437 7.424-6.321 7.424-10.697-1e-3 -4.372-2.926-8.241-7.426-10.678z"/>
<ellipse transform="translate(-.037996 -.045)" cx="301.54" cy="670.71" rx="22.577" ry="19.418"/>
<path d="m312.59 234.71s-4.97-1.807-11.095-1.807-11.095 1.807-11.095 1.807"/>
</g>
</g>
<g>
<path d="m1.5 1.5v458.87c0 166.31 134.31 301.13 300 301.13 165.69 0 300-134.82 300-301.13v-458.87h-600z" fill="url(#a)"/>
<path d="m1.5 1.5v458.87c0 166.31 134.31 301.13 300 301.13 165.69 0 300-134.82 300-301.13v-458.87h-600z" fill="none" stroke="#000" stroke-width="3"/>
</g>
</svg>

<?xml version="1.0" encoding="UTF-8" standalone="no"?>
<svg
   xmlns:dc="http://purl.org/dc/elements/1.1/"
   xmlns:cc="http://creativecommons.org/ns#"
   xmlns:rdf="http://www.w3.org/1999/02/22-rdf-syntax-ns#"
   xmlns:svg="http://www.w3.org/2000/svg"
   xmlns="http://www.w3.org/2000/svg"
   xmlns:xlink="http://www.w3.org/1999/xlink"
   xmlns:sodipodi="http://sodipodi.sourceforge.net/DTD/sodipodi-0.dtd"
   xmlns:inkscape="http://www.inkscape.org/namespaces/inkscape"
   height="763"
   width="603"
   version="1.0"
   id="svg20"
   sodipodi:version="0.32"
   inkscape:version="0.46"
   sodipodi:docname="Le_Vaud-coat_of_arms.svg"
   sodipodi:docbase="C:\Documents and Settings\Steve\Bureau\Blason Villages Suisse pour Wikipédia (par Delta-9)"
   inkscape:output_extension="org.inkscape.output.svg.inkscape">
  <metadata
     id="metadata31">
    <rdf:RDF>
      <cc:Work
         rdf:about="">
        <dc:format>image/svg+xml</dc:format>
        <dc:type
           rdf:resource="http://purl.org/dc/dcmitype/StillImage" />
        <dc:date>07-AUG-2006</dc:date>
        <dc:creator>
          <cc:Agent>
            <dc:title>Jérôme BLUM (wagner51)</dc:title>
          </cc:Agent>
        </dc:creator>
        <cc:license
           rdf:resource="http://creativecommons.org/licenses/GPL/2.0/" />
        <dc:coverage />
        <dc:description>Gabarit pour le Projet:Blasons de WIkipédia</dc:description>
        <dc:subject>
          <rdf:Bag>
            <rdf:li>blason suisse modèle gabarit projet blasons</rdf:li>
          </rdf:Bag>
        </dc:subject>
        <dc:language>fr</dc:language>
        <dc:title>Gabrit d'un blason suisse</dc:title>
      </cc:Work>
      <cc:License
         rdf:about="http://creativecommons.org/licenses/GPL/2.0/">
        <cc:permits
           rdf:resource="http://web.resource.org/cc/Reproduction" />
        <cc:permits
           rdf:resource="http://web.resource.org/cc/Distribution" />
        <cc:requires
           rdf:resource="http://web.resource.org/cc/Notice" />
        <cc:permits
           rdf:resource="http://web.resource.org/cc/DerivativeWorks" />
        <cc:requires
           rdf:resource="http://web.resource.org/cc/ShareAlike" />
        <cc:requires
           rdf:resource="http://web.resource.org/cc/SourceCode" />
      </cc:License>
    </rdf:RDF>
  </metadata>
  <defs
     id="defs29"><inkscape:perspective
   sodipodi:type="inkscape:persp3d"
   inkscape:vp_x="0 : 381.5 : 1"
   inkscape:vp_y="0 : 1000 : 0"
   inkscape:vp_z="603 : 381.5 : 1"
   inkscape:persp3d-origin="301.5 : 254.33333 : 1"
   id="perspective28" />
<linearGradient
   id="linearGradient2893">
  <stop
     style="stop-color:#ffffff;stop-opacity:0.3137255;"
     offset="0"
     id="stop2895" />
  <stop
     id="stop2897"
     offset="0.19"
     style="stop-color:#ffffff;stop-opacity:0.25098041;" />
  <stop
     style="stop-color:#6b6b6b;stop-opacity:0.1254902;"
     offset="0.60000002"
     id="stop2901" />
  <stop
     style="stop-color:#000000;stop-opacity:0.1254902;"
     offset="1"
     id="stop2899" />
</linearGradient>
<linearGradient
   id="linearGradient2955">
  <stop
     style="stop-color:white;stop-opacity:0;"
     offset="0"
     id="stop2965" />
  <stop
     style="stop-color:black;stop-opacity:0.64583331;"
     offset="1"
     id="stop2959" />
</linearGradient>
<radialGradient
   inkscape:collect="always"
   xlink:href="#linearGradient2893"
   id="radialGradient3236"
   gradientUnits="userSpaceOnUse"
   gradientTransform="matrix(1.215027,1.531577e-24,1.464684e-23,1.266667,-839.1924,-490.4894)"
   cx="858.04236"
   cy="579.93323"
   fx="858.04236"
   fy="579.93323"
   r="300" />
<inkscape:perspective
   id="perspective2579"
   inkscape:persp3d-origin="297.63751 : 280.63 : 1"
   inkscape:vp_z="595.27502 : 420.94501 : 1"
   inkscape:vp_y="0 : 1000 : 0"
   inkscape:vp_x="0 : 420.94501 : 1"
   sodipodi:type="inkscape:persp3d" />

	
	
	

	

		
		
	
		
		
		
		
		
	
		
		
		
		
		
	
			
				
			
				
			
				
			
		
			
		
			
				
			
				
			
				
			
		
			
		
			
			
			
			
		</defs>
  <sodipodi:namedview
     inkscape:window-height="917"
     inkscape:window-width="1228"
     inkscape:pageshadow="2"
     inkscape:pageopacity="0.0"
     guidetolerance="10.0"
     gridtolerance="10.0"
     objecttolerance="10.0"
     borderopacity="1.0"
     bordercolor="#666666"
     pagecolor="#ffffff"
     id="base"
     inkscape:zoom="0.64776452"
     inkscape:cx="266.46421"
     inkscape:cy="375.64052"
     inkscape:window-x="27"
     inkscape:window-y="35"
     inkscape:current-layer="layer2"
     showgrid="false"
     showguides="true"
     inkscape:guide-bbox="true">
    <sodipodi:guide
       orientation="horizontal"
       position="761.5"
       id="guide1885" />
    <sodipodi:guide
       orientation="vertical"
       position="1.5"
       id="guide1887" />
    <sodipodi:guide
       orientation="horizontal"
       position="1.5"
       id="guide1889" />
    <sodipodi:guide
       orientation="vertical"
       position="601.5"
       id="guide1891" />
    <sodipodi:guide
       orientation="vertical"
       position="301.50081"
       id="guide1893" />
  </sodipodi:namedview>
  <desc
     id="desc22">Coat of Arms of Canton of Freiburg (Fribourg)</desc>
  <g
     inkscape:groupmode="layer"
     id="layer1"
     inkscape:label="Fond écu"
     style="opacity:1;display:inline"
     sodipodi:insensitive="true">
    <path
       id="path1899"
       d="M 1.5,1.49998 L 1.5,460.3679 C 1.5,626.6785 135.81456,761.5 301.49999,761.5 C 467.18543,761.5 601.5,626.6785 601.5,460.3679 L 601.5,1.49998 L 1.5,1.49998 z"
       style="fill:#e20909;fill-opacity:1" />
  </g>
  <g
     inkscape:groupmode="layer"
     id="layer2"
     inkscape:label="Meubles"
     style="opacity:1;display:inline"
     sodipodi:insensitive="true">
    <g
       id="g2727">
      <path
         id="path2518"
         d="M 86.479,414.813 L 86.479,545.508 L 217.173,545.508 L 217.173,436.007 L 195.978,414.813 L 86.479,414.813 z M 116.719,445.052 C 127.347,434.425 141.639,431.485 148.64,438.486 C 150.168,440.014 151.221,441.886 151.826,443.993 C 152.431,441.887 153.484,440.014 155.012,438.486 C 162.012,431.485 176.304,434.425 186.932,445.053 C 197.561,455.682 200.5,469.974 193.499,476.975 C 191.972,478.502 190.099,479.555 187.992,480.16 C 190.099,480.765 191.973,481.818 193.499,483.345 C 200.501,490.348 197.561,504.64 186.933,515.267 C 176.304,525.896 162.014,528.835 155.012,521.834 C 153.484,520.307 152.43,518.433 151.826,516.324 C 151.221,518.432 150.168,520.307 148.639,521.835 C 141.638,528.836 127.347,525.897 116.718,515.268 C 106.091,504.64 103.151,490.348 110.152,483.346 C 111.68,481.819 113.553,480.766 115.661,480.159 C 113.553,479.555 111.68,478.502 110.152,476.974 C 103.151,469.973 106.091,455.681 116.719,445.052 z"
         style="fill:#ffffff;stroke:#000000;stroke-width:3" />
      <path
         style="fill:#ffffff;stroke:#000000;stroke-width:3"
         d="M 198.329,409.138 L 80.804,409.138 L 80.804,551.182 L 222.847,551.182 L 222.847,433.657 L 198.329,409.138 z M 211.499,438.358 C 211.499,442.621 211.499,529.862 211.499,539.834 C 201.587,539.834 102.065,539.834 92.152,539.834 C 92.152,529.922 92.152,430.4 92.152,420.488 C 102.124,420.488 189.364,420.488 193.628,420.488 C 196.211,423.07 208.916,435.775 211.499,438.358 z"
         id="path2522" />
      <path
         id="path2524"
         d="M 465.499,166.487 L 411.436,220.551 L 428.963,238.078 L 414.977,252.064 L 433.346,270.434 L 447.332,256.448 L 461.317,270.434 L 447.332,284.42 L 465.7,302.79 L 499.726,268.765 L 487.577,256.616 L 501.561,242.63 L 513.71,254.779 L 547.736,220.754 L 529.367,202.384 L 515.381,216.37 L 501.395,202.385 L 515.381,188.398 L 497.012,170.028 L 483.027,184.014 L 465.499,166.487 z M 457.726,203.803 L 467.539,213.615 L 477.35,203.803 L 487.162,213.615 L 477.35,223.426 L 487.162,233.238 L 477.35,243.05 L 467.539,233.238 L 457.726,243.05 L 447.914,233.238 L 457.726,223.426 L 447.914,213.615 L 457.726,203.803 z"
         style="fill:#ffffff;stroke:#000000;stroke-width:3" />
      <path
         id="path2526"
         d="M 479.581,134.216 C 484.603,129.193 490.172,131.768 495.195,136.79 L 495.195,136.79 C 500.217,141.813 502.793,147.383 497.77,152.405 L 215.754,434.422 L 197.565,416.232 L 479.581,134.216 z"
         style="fill:#ffffff;stroke:#000000;stroke-width:3" />
      <ellipse
         style="fill:#ffffff;stroke:#000000;stroke-width:3"
         sodipodi:ry="16.124001"
         sodipodi:rx="20.9"
         sodipodi:cy="548.37903"
         sodipodi:cx="83.690002"
         transform="matrix(-0.7071,-0.7071,0.7071,-0.7071,-244.9216,995.2832)"
         cx="83.690002"
         cy="548.37903"
         rx="20.9"
         ry="16.124001"
         id="ellipse2530" />
      <ellipse
         style="fill:#ffffff;stroke:#000000;stroke-width:3"
         sodipodi:ry="16.122999"
         sodipodi:rx="20.900999"
         sodipodi:cy="412.03101"
         sodipodi:cx="83.690002"
         transform="matrix(0.7071,-0.7071,0.7071,0.7071,-266.8756,179.814)"
         cx="83.690002"
         cy="412.03101"
         rx="20.900999"
         ry="16.122999"
         id="ellipse2532" />
      <ellipse
         style="fill:#ffffff;stroke:#000000;stroke-width:3"
         sodipodi:ry="16.122999"
         sodipodi:rx="20.9"
         sodipodi:cy="548.37799"
         sodipodi:cx="220.03799"
         transform="matrix(0.7071,-0.7071,0.7071,0.7071,-323.3504,316.1575)"
         cx="220.03799"
         cy="548.37799"
         rx="20.9"
         ry="16.122999"
         id="ellipse2534" />
      <path
         style="fill:#ffffff;stroke:#000000;stroke-width:3"
         d="M 186.531,405.198 C 190.779,400.95 197.663,400.95 201.911,405.198 L 226.788,430.074 C 231.034,434.322 231.035,441.207 226.788,445.454 L 226.788,445.454 C 222.54,449.702 215.655,449.702 211.408,445.454 L 186.532,420.579 C 182.283,416.331 182.283,409.445 186.531,405.198 L 186.531,405.198 z"
         id="path2536" />
      <path
         id="path2540"
         d="M 407.02,414.813 L 385.825,436.007 L 385.825,545.508 L 516.52,545.508 L 516.52,414.813 L 407.02,414.813 z M 492.846,476.974 C 491.319,478.501 489.445,479.555 487.337,480.159 C 489.444,480.765 491.318,481.818 492.846,483.346 C 499.847,490.348 496.909,504.64 486.28,515.268 C 475.651,525.897 461.36,528.836 454.358,521.835 C 452.832,520.308 451.777,518.433 451.172,516.324 C 450.568,518.432 449.514,520.306 447.986,521.834 C 440.984,528.835 426.694,525.896 416.064,515.267 C 405.436,504.64 402.496,490.348 409.498,483.345 C 411.025,481.819 412.898,480.766 415.006,480.16 C 412.899,479.556 411.027,478.503 409.498,476.975 C 402.497,469.974 405.436,455.682 416.065,445.053 C 426.694,434.425 440.986,431.485 447.986,438.486 C 449.513,440.014 450.567,441.886 451.172,443.993 C 451.776,441.887 452.83,440.014 454.357,438.486 C 461.358,431.485 475.651,434.425 486.279,445.052 C 496.908,455.681 499.847,469.973 492.846,476.974 z"
         style="fill:#ffffff;stroke:#000000;stroke-width:3" />
      <path
         style="fill:#ffffff;stroke:#000000;stroke-width:3"
         d="M 380.15,433.657 L 380.15,551.182 L 522.194,551.182 L 522.194,409.138 L 404.67,409.138 L 380.15,433.657 z M 409.37,420.487 C 413.634,420.487 500.874,420.487 510.846,420.487 C 510.846,430.4 510.846,529.921 510.846,539.833 C 500.933,539.833 401.412,539.833 391.499,539.833 C 391.499,529.861 391.499,442.62 391.499,438.357 C 394.082,435.775 406.787,423.07 409.37,420.487 z"
         id="path2544" />
      <path
         id="path2546"
         d="M 119.972,184.014 L 105.986,170.028 L 87.616,188.398 L 101.603,202.385 L 87.617,216.37 L 73.631,202.384 L 55.261004,220.754 L 89.286,254.779 L 101.436,242.63 L 115.421,256.616 L 103.272,268.765 L 137.298,302.79 L 155.667,284.42 L 141.681,270.434 L 155.667,256.448 L 169.653,270.434 L 188.023,252.064 L 174.037,238.078 L 191.564,220.551 L 137.5,166.487 L 119.972,184.014 z M 155.084,213.615 L 145.272,223.426 L 155.084,233.238 L 145.273,243.05 L 135.461,233.238 L 125.649,243.05 L 115.837,233.238 L 125.649,223.426 L 115.837,213.615 L 125.649,203.803 L 135.461,213.615 L 145.273,203.803 L 155.084,213.615 z"
         style="fill:#ffffff;stroke:#000000;stroke-width:3" />
      <path
         id="path2548"
         d="M 123.417,134.216 C 118.394,129.193 112.826,131.768 107.802,136.79 L 107.802,136.79 C 102.78,141.813 100.204,147.383 105.227,152.405 L 387.243,434.423 L 405.433,416.233 L 123.417,134.216 z"
         style="fill:#ffffff;stroke:#000000;stroke-width:3" />
      <ellipse
         style="fill:#ffffff;stroke:#000000;stroke-width:3"
         sodipodi:ry="16.124001"
         sodipodi:rx="20.9"
         sodipodi:cy="548.37903"
         sodipodi:cx="519.38397"
         transform="matrix(0.7071,-0.7071,0.7071,0.7071,-235.6763,527.8193)"
         cx="519.38397"
         cy="548.37903"
         rx="20.9"
         ry="16.124001"
         id="ellipse2552" />
      <ellipse
         style="fill:#ffffff;stroke:#000000;stroke-width:3"
         sodipodi:ry="16.122999"
         sodipodi:rx="20.900999"
         sodipodi:cy="412.03101"
         sodipodi:cx="519.38397"
         transform="matrix(-0.7071,-0.7071,0.7071,-0.7071,595.251,1070.5966)"
         cx="519.38397"
         cy="412.03101"
         rx="20.900999"
         ry="16.122999"
         id="ellipse2554" />
      <ellipse
         style="fill:#ffffff;stroke:#000000;stroke-width:3"
         sodipodi:ry="16.124001"
         sodipodi:rx="20.9"
         sodipodi:cy="548.37799"
         sodipodi:cx="383.03601"
         transform="matrix(-0.7071,-0.7071,0.7071,-0.7071,266.0935,1206.9445)"
         cx="383.03601"
         cy="548.37799"
         rx="20.9"
         ry="16.124001"
         id="ellipse2556" />
      <path
         style="fill:#ffffff;stroke:#000000;stroke-width:3"
         d="M 416.466,405.198 C 412.22,400.95 405.334,400.95 401.087,405.198 L 376.21,430.074 C 371.964,434.322 371.963,441.207 376.21,445.454 L 376.21,445.454 C 380.458,449.702 387.343,449.702 391.59,445.454 L 416.466,420.579 C 420.715,416.331 420.715,409.445 416.466,405.198 L 416.466,405.198 z"
         id="path2558" />
    </g>
    <g
       id="g2720">
      <rect
         style="fill:#ffffff;stroke:#000000;stroke-width:3"
         x="290.40802"
         y="247.55299"
         width="22.187"
         height="417.091"
         id="rect2564" />
      <path
         style="fill:#ffffff;stroke:#000000;stroke-width:3"
         d="M 351.178,40.4 L 251.82,40.4 L 235.122,206.016 C 235.122,206.016 274.6,206.15 300.85,213.9 L 302.149,213.9 C 328.399,206.15 367.877,206.016 367.877,206.016 L 367.878,206.016 L 351.178,40.4 z"
         id="path2566" />
      <path
         style="fill:#ffffff;stroke:#000000;stroke-width:3"
         d="M 312.594,234.707 L 305.656,128.516 C 305.656,120.308 303.796,113.653 301.5,113.653 C 299.204,113.653 297.343,120.308 297.343,128.516 L 290.405,234.707 C 285.905,237.144 282.981,241.013 282.981,245.385 C 282.981,249.762 285.899,253.648 290.409,256.084 C 290.409,256.084 297.34,254.056 301.5,254.056 C 305.662,254.056 312.596,256.082 312.596,256.082 C 317.103,253.645 320.02,249.761 320.02,245.385 C 320.019,241.013 317.094,237.144 312.594,234.707 z"
         id="path2568" />
      <ellipse
         transform="translate(-3.7996e-2,-4.5e-2)"
         style="fill:#ffffff;stroke:#000000;stroke-width:3"
         sodipodi:ry="19.417999"
         sodipodi:rx="22.577"
         sodipodi:cy="670.70599"
         sodipodi:cx="301.53699"
         cx="301.53699"
         cy="670.70599"
         rx="22.577"
         ry="19.417999"
         id="ellipse2570" />
      <path
         id="path2572"
         d="M 312.594,234.707 C 312.594,234.707 307.624,232.9 301.499,232.9 C 295.374,232.9 290.404,234.707 290.404,234.707"
         style="fill:#ffffff;stroke:#000000;stroke-width:3" />
    </g>
  </g>
  <g
     inkscape:groupmode="layer"
     id="layer3"
     inkscape:label="Reflet final"
     style="display:inline"
     sodipodi:insensitive="true">
    <path
       style="fill:url(#radialGradient3236);fill-opacity:1"
       d="M 1.5,1.5 L 1.5,460.3679 C 1.5,626.67854 135.81454,761.5 301.49993,761.5 C 467.1854,761.5 601.5,626.67854 601.5,460.3679 L 601.5,1.5 L 1.5,1.5 z "
       id="path2346" />
  </g>
  <g
     inkscape:groupmode="layer"
     id="layer4"
     inkscape:label="Contour final"
     style="display:inline"
     sodipodi:insensitive="true">
    <path
       style="fill:none;fill-opacity:1;stroke:#000000;stroke-width:3;stroke-miterlimit:4;stroke-dasharray:none;stroke-opacity:1"
       d="M 1.5,1.5 L 1.5,460.36794 C 1.5,626.67854 135.81454,761.5 301.49993,761.5 C 467.1854,761.5 601.5,626.67854 601.5,460.36794 L 601.5,1.5 L 1.5,1.5 z "
       id="path3239" />
  </g>
</svg>
